svgs/sharp-light/cactus.svg

<svg xmlns="http://www.w3.org/2000/svg" viewBox="0 0 512 512"><!--! Font Awesome Pro 6.6.0 by @fontawesome - https://fontawesome.com License - https://fontawesome.com/license (Commercial License) Copyright 2024 Fonticons, Inc. --><path d="M320 96c0-35.3-28.7-64-64-64s-64 28.7-64 64l0 128 0 32 0 32 0 32 0 160 128 0 0-32 0-32 0-32 0-32 0-256zm32 288l0 32 112 0 16 0 0-16 0-128 0-16-32 0 0 16 0 80 0 32-32 0-64 0zm0 64l0 32 0 32-32 0-128 0-32 0 0-32 0-160L48 320l-16 0L0 320l0-32 0-16L0 144l0-16L0 96l32 0 32 0 32 0 0 32 0 16 0 48 0 32 32 0 32 0 0-128c0-53 43-96 96-96s96 43 96 96l0 256 32 0 32 0 0-32 0-48 0-16 0-32 32 0 32 0 32 0 0 32 0 16 0 128 0 16 0 32-32 0-16 0-112 0zM64 256l0-32 0-80 0-16-32 0 0 16 0 128 0 16 16 0 112 0 0-32-64 0-32 0zM224 144a16 16 0 1 1 32 0 16 16 0 1 1 -32 0zm48 208a16 16 0 1 1 0 32 16 16 0 1 1 0-32z"/></svg>

<svg xmlns="http://www.w3.org/2000/svg" viewBox="0 0 512 512"><!--! Font Awesome Pro 6.4.2 by @fontawesome - https://fontawesome.com License - https://fontawesome.com/license (Commercial License) Copyright 2023 Fonticons, Inc. --><path d="M320 96c0-35.3-28.7-64-64-64s-64 28.7-64 64V224v32 32 32V480H320V448 416 384 352 96zm32 288v32H464h16V400 272 256H448v16 80 32H416 352zm0 64v32 32H320 192 160V480 320H48 32 0V288 272 144 128 96H32 64 96v32 16 48 32h32 32V96c0-53 43-96 96-96s96 43 96 96V352h32 32V320 272 256 224h32 32 32v32 16V400v16 32H480 464 352zM64 256V224 144 128H32v16V272v16H48 160V256H96 64zM224 144a16 16 0 1 1 32 0 16 16 0 1 1 -32 0zm48 208a16 16 0 1 1 0 32 16 16 0 1 1 0-32z"/></svg>
